assets/img/images/logo.svg

<?xml version="1.0" encoding="utf-8"?>
<!-- Generator: Adobe Illustrator 18.1.1, SVG Export Plug-In . SVG Version: 6.00 Build 0)  -->
<!DOCTYPE svg PUBLIC "-//W3C//DTD SVG 1.1//EN" "http://www.w3.org/Graphics/SVG/1.1/DTD/svg11.dtd">
<svg version="1.1" xmlns="http://www.w3.org/2000/svg" xmlns:xlink="http://www.w3.org/1999/xlink" x="0px" y="0px"
	 viewBox="0 0 1000 202.1" enable-background="new 0 0 1000 202.1" xml:space="preserve">
<g id="icon-grey-transparent">
</g>
<g id="icon-grey">
</g>
<g id="icon-white-grey">
</g>
<g id="white-grey-square">
</g>
<g id="grey-square">
</g>
<g id="white-grey">
</g>
<g id="grey-transparent">
</g>
<g id="grey">
</g>
<g id="icon-black-transparent">
</g>
<g id="icon-black">
</g>
<g id="icon-white-transparent">
</g>
<g id="icon-white">
</g>
<g id="white-square">
</g>
<g id="black-square">
</g>
<g id="white-transparent">
	<g>
		<g>
			<path fill="#FFFFFF" d="M0,168l25.2-15.5c6.9,12.3,14,20.9,30.1,20.9c14.9,0,25.5-6.9,25.5-30.1V4h30.9v140
				c0,38.6-23.2,57.2-55.2,57.2C26.6,201.2,9.4,186.3,0,168z"/>
			<path fill="#FFFFFF" d="M155.3,198.6h-30.9L209.7,0h1.7L297,198.6h-32.3l-11.2-27.2c0,0-86.7,0-87,0L155.3,198.6z M210.3,67.3
				l-32.3,77h64.1C242.4,144.3,210.3,67.3,210.3,67.3z"/>
			<path fill="#FFFFFF" d="M298.5,101.3c0-57.5,44.1-99.9,99.9-99.9c36.1,0,57.8,12.9,73.8,30.9l-21.2,20
				c-11.7-12.9-25.2-23.2-53.5-23.2c-39.5,0-67.3,30.9-67.3,72.1c0,41.2,28,72.1,72.4,72.1c21.2,0,36.1-4.9,47.2-12.3v-22h-52.1
				v-27.2h80.4v63.8c-16.3,13.5-38.9,25.5-75.6,25.5C342.8,201.2,298.5,158.8,298.5,101.3z"/>
			<path fill="#FFFFFF" d="M519.7,4h18.9v194.6h-18.9V4z"/>
			<path fill="#FFFFFF" d="M627,20.6h-60.4V4h139.1v16.6h-60.1v178H627V20.6z"/>
		</g>
		<g>
			<path fill="#FFFFFF" d="M928.6,5.4l-78,184.7c4.8,2.6,9.8,4.7,15,6.4L944,11.6C939.1,9.2,934,7,928.6,5.4z"/>
			<path fill="#FFFFFF" d="M958.2,20.2l-76,180.5c5.3,0.9,10.8,1.4,16.4,1.4c4.7,0,9.3-0.4,13.8-1l67.7-159.2
				C974,33.6,966.6,26.3,958.2,20.2z"/>
			<path fill="#FFFFFF" d="M948.5,189.1c30.7-17.3,51.5-50,51.5-87.5c0-8.8-1.3-17.4-3.4-25.5L948.5,189.1z"/>
			<path fill="#FFFFFF" d="M844,186.1L921.4,3.5c-7.3-1.7-14.9-2.6-22.7-2.6c-56,0-101.4,45-101.4,100.6
				C797.3,137.1,815.9,168.3,844,186.1z"/>
		</g>
	</g>
</g>
<g id="white">
</g>
<g id="black-transparent">
</g>
<g id="black">
</g>
</svg>

<?xml version="1.0" encoding="UTF-8" standalone="no"?>
<svg width="1000px" height="203px" viewBox="0 0 1000 203" version="1.1" xmlns="http://www.w3.org/2000/svg" xmlns:xlink="http://www.w3.org/1999/xlink" xmlns:sketch="http://www.bohemiancoding.com/sketch/ns">
    <!-- Generator: Sketch 3.3.3 (12081) - http://www.bohemiancoding.com/sketch -->
    <title>Slice 1</title>
    <desc>Created with Sketch.</desc>
    <defs></defs>
    <g id="Page-1" stroke="none" stroke-width="1" fill="none" fill-rule="evenodd" sketch:type="MSPage">
        <g id="logo" sketch:type="MSLayerGroup" fill="#ffffff">
            <path d="M0,168 L25.2,152.5 C32.1,164.8 39.2,173.4 55.3,173.4 C70.2,173.4 80.8,166.5 80.8,143.3 L80.8,4 L111.7,4 L111.7,144 C111.7,182.6 88.5,201.2 56.5,201.2 C26.6,201.2 9.4,186.3 0,168 Z M155.3,198.6 L124.4,198.6 L209.7,0 L211.4,0 L297,198.6 L264.7,198.6 L253.5,171.4 L166.5,171.4 L155.3,198.6 Z M210.3,67.3 L178,144.3 L242.1,144.3 C242.4,144.3 210.3,67.3 210.3,67.3 Z M298.5,101.3 C298.5,43.8 342.6,1.4 398.4,1.4 C434.5,1.4 456.2,14.3 472.2,32.3 L451,52.3 C439.3,39.4 425.8,29.1 397.5,29.1 C358,29.1 330.2,60 330.2,101.2 C330.2,142.4 358.2,173.3 402.6,173.3 C423.8,173.3 438.7,168.4 449.8,161 L449.8,139 L397.7,139 L397.7,111.8 L478.1,111.8 L478.1,175.6 C461.8,189.1 439.2,201.1 402.5,201.1 C342.8,201.2 298.5,158.8 298.5,101.3 Z M519.7,4 L538.6,4 L538.6,198.6 L519.7,198.6 L519.7,4 Z M627,20.6 L566.6,20.6 L566.6,4 L705.7,4 L705.7,20.6 L645.6,20.6 L645.6,198.6 L627,198.6 L627,20.6 Z M928.6,5.4 L850.6,190.1 C855.4,192.7 860.4,194.8 865.6,196.5 L944,11.6 C939.1,9.2 934,7 928.6,5.4 Z M958.2,20.2 L882.2,200.7 C887.5,201.6 893,202.1 898.6,202.1 C903.3,202.1 907.9,201.7 912.4,201.1 L980.1,41.9 C974,33.6 966.6,26.3 958.2,20.2 Z M948.5,189.1 C979.2,171.8 1000,139.1 1000,101.6 C1000,92.8 998.7,84.2 996.6,76.1 L948.5,189.1 Z M844,186.1 L921.4,3.5 C914.1,1.8 906.5,0.9 898.7,0.9 C842.7,0.9 797.3,45.9 797.3,101.5 C797.3,137.1 815.9,168.3 844,186.1 Z"></path>
        </g>
    </g>
</svg>
